packages/kaspersky-hexa-ui-icons/src/iconsSVGs/24/MemorySolid.svg

<svg xmlns="http://www.w3.org/2000/svg" width="24" height="24" fill="none" viewBox="0 0 24 24"><path fill="#000" fill-rule="evenodd" d="M11 4c0-.5523-.4477-1-1-1s-1 .4477-1 1v1H8C6.3431 5 5 6.3431 5 8v1H4c-.5523 0-1 .4477-1 1s.4477 1 1 1h1v2H4c-.5523 0-1 .4477-1 1s.4477 1 1 1h1v1c0 1.6569 1.3431 3 3 3h1v1c0 .5523.4477 1 1 1s1-.4477 1-1v-1h2v1c0 .5523.4477 1 1 1s1-.4477 1-1v-1h1c1.6569 0 3-1.3431 3-3v-1h1c.5523 0 1-.4477 1-1s-.4477-1-1-1h-1v-2h1c.5523 0 1-.4477 1-1s-.4477-1-1-1h-1V8c0-1.6569-1.3431-3-3-3h-1V4c0-.5523-.4477-1-1-1s-1 .4477-1 1v1h-2zm-1 7c0-.5523.4477-1 1-1h2c.5523 0 1 .4477 1 1v2c0 .5523-.4477 1-1 1h-2c-.5523 0-1-.4477-1-1z"/></svg>

<svg width="24" height="24" viewBox="0 0 24 24" fill="none" xmlns="http://www.w3.org/2000/svg">
<path fill-rule="evenodd" clip-rule="evenodd" d="M11 4C11 3.44772 10.5523 3 10 3C9.44772 3 9 3.44772 9 4V5H8C6.34315 5 5 6.34315 5 8V9H4C3.44772 9 3 9.44772 3 10C3 10.5523 3.44772 11 4 11H5V13H4C3.44772 13 3 13.4477 3 14C3 14.5523 3.44772 15 4 15H5V16C5 17.6569 6.34315 19 8 19H9V20C9 20.5523 9.44772 21 10 21C10.5523 21 11 20.5523 11 20V19H13V20C13 20.5523 13.4477 21 14 21C14.5523 21 15 20.5523 15 20V19H16C17.6569 19 19 17.6569 19 16V15H20C20.5523 15 21 14.5523 21 14C21 13.4477 20.5523 13 20 13H19V11H20C20.5523 11 21 10.5523 21 10C21 9.44772 20.5523 9 20 9H19V8C19 6.34315 17.6569 5 16 5H15V4C15 3.44772 14.5523 3 14 3C13.4477 3 13 3.44772 13 4V5H11V4ZM10 11C10 10.4477 10.4477 10 11 10H13C13.5523 10 14 10.4477 14 11V13C14 13.5523 13.5523 14 13 14H11C10.4477 14 10 13.5523 10 13V11Z" fill="black"/>
</svg>
